X: 192
T: Miss Deans's Favorite
R: jig
Q: "Slow"
B: William Shepherd "2nd Collection" 1800 p.19 #2
F: http://imslp.org/wiki/File:PMLP73094-Shepherd_Collections_HMT.pdf
C: William Shepherd (17??-1812)
Z: 2012 John Chambers <jc:trillian.mit.edu>
M: 6/8
L: 1/8
K: Bb
F |\
D>FD E>GE | A>cA TB3 | g>ec f>dB | G>cB {B}A>GF |\
D>FD E>GE | A>cA TB3 | Tg>ab f>dB | G>cA {c}TB2 :|
f |\
f>ga b>ag | f>df e2d | g>ec f>dB | G>cB A>GF |\
f>ga b>ag | f>df e2d | g>ec f>dB | e>cA {c}B2 ||
f |\
f>ga b>ag | f>df e2d | g>ec f>dB | G>cB A>GF |\
E>B,D E>CE | F>DF G>EG | A>Bc G>cB | AFA {c}~B2 |]

